X: 21
T:Hob y Deri Danno
T:Away to the Oaken Grove
M:C
L:1/8
Q:220
C:Trad
S:51 Welsh Airs
R:?
A:Wales
H:From a facsimile c.1840: A Choice Collection of Fifty-One Welsh Airs
H:adapted for The Harp, Piano-Forte, Harpsichord,
H:Violin, or Flute by Edward Jones
H:"Harper to His Late Majesty King George IV, when
H:Prince of Wales".
Z:brian_martin12345@yahoo.com
K:Bb
"Cheerful"
F2B2B2cd|e2d2c2B2|BdcBc2Fz|F2B2B2cd|e2d2c2B2|fgfgf2Fz||]
f2f>ff2ed|e2e2e2dc|(d3e) (d2cB)|c4z4|F2B2B2cd|
e2d2c2B2|F2B>cB4|A>Bc>dc4|B2f>gf3e|(d3c)B4||

